public/svg/icon/vibe.svg

<svg xmlns="http://www.w3.org/2000/svg" xmlns:xlink="http://www.w3.org/1999/xlink" width="32" height="32" viewBox="0 0 32 32"><defs><linearGradient id="vibe-c" x1="50%" x2="50%" y1="0%" y2="100%"><stop offset="0%" stop-color="#FFF" stop-opacity=".5"/><stop offset="100%" stop-opacity=".5"/></linearGradient><circle id="vibe-b" cx="16" cy="15" r="15"/><filter id="vibe-a" width="111.7%" height="111.7%" x="-5.8%" y="-4.2%" filterUnits="objectBoundingBox"><feOffset dy=".5" in="SourceAlpha" result="shadowOffsetOuter1"/><feGaussianBlur in="shadowOffsetOuter1" result="shadowBlurOuter1" stdDeviation=".5"/><feComposite in="shadowBlurOuter1" in2="SourceAlpha" operator="out" result="shadowBlurOuter1"/><feColorMatrix in="shadowBlurOuter1" values="0 0 0 0 0 0 0 0 0 0 0 0 0 0 0 0 0 0 0.199473505 0"/></filter><path id="vibe-e" d="M22.6308579,15.917768 C23.3591047,16.1135585 24.0793489,16.3406755 24.7275686,16.7400881 C25.0163916,16.9174091 25.2847168,17.1248541 25.5278399,17.3587861 C25.887962,17.7581987 25.8639539,18.1811062 25.5358427,18.6040137 C25.247745,18.9720999 24.8556121,19.2070485 24.439471,19.402839 C23.3831129,19.9118943 22.2627331,20.2016642 21.1183451,20.3739599 C20.1900304,20.514929 19.2457103,20.5932452 18.3093929,20.7107195 C18.2198951,20.7299625 18.1420443,20.7835752 18.0933197,20.8595203 C17.4370972,21.8384728 16.7888775,22.8174254 16.132655,23.7963779 C16.0798707,23.8609 16.0317381,23.9289384 15.9886062,24 C15.8445573,23.7807146 15.7085112,23.5770925 15.5724651,23.3734704 C15.0202779,22.5433186 14.4760934,21.7053353 13.9319089,20.8673519 C13.874803,20.7679431 13.7683173,20.7054176 13.651814,20.7028879 C11.7791792,20.5697504 9.9305525,20.3269701 8.16195295,19.6926089 C7.60176304,19.4968184 7.06558128,19.2540382 6.60142393,18.885952 C6.57741579,18.8624572 6.54540494,18.8467939 6.5213968,18.8232991 C5.84116621,18.2515908 5.82516078,17.6407244 6.48138324,17.0533529 C7.00155958,16.5834557 7.64177661,16.3171806 8.30600178,16.1135585 C8.97022695,15.9099364 9.64245483,15.7611356 10.3146827,15.5888399 C10.3466936,15.5810083 10.3787044,15.5810083 10.4347234,15.5653451 C8.98623238,13.3489966 7.55374677,11.1561429 6.08925031,8.9319628 C6.17728015,8.92413118 6.24130185,8.91629956 6.29732084,8.91629956 C7.2016274,8.90846794 8.10593396,8.91629956 9.01024051,8.90846794 C9.1419514,8.90111353 9.2651877,8.97223755 9.32234632,9.0885952 C11.5124221,12.4274759 13.6998303,15.7689672 15.8845709,19.113069 C15.9166137,19.1687269 15.9541381,19.2211871 15.9966089,19.2697014 C16.5007798,18.5100343 16.9889453,17.7816936 17.469108,17.0533529 C19.2297049,14.3932126 20.9903017,11.7356828 22.7508986,9.08076358 C22.8149203,8.98678414 22.8629365,8.91629956 23.0069854,8.91629956 C23.9593082,8.92413118 24.911631,8.92413118 25.8639539,8.92413118 C25.9094285,8.92384025 25.9548739,8.92645636 26,8.9319628 C24.5114954,11.1796378 23.0309935,13.4038179 21.5344862,15.6514929 C21.9106137,15.7454723 22.2707358,15.8237885 22.6308579,15.917768 Z M8.89820253,17.7973568 C9.08377854,18.0054974 9.30270957,18.1827169 9.54642228,18.3220754 C10.5467614,18.8546256 11.6511358,19.0504161 12.7955237,19.2227117 C12.7795183,19.1678904 12.7795183,19.1443955 12.7715156,19.1287323 C12.1232958,18.1497797 11.4830788,17.1629956 10.8348591,16.1840431 C10.7825511,16.1325588 10.7079238,16.1091887 10.6347912,16.1213901 C10.2542567,16.2457887 9.88263725,16.3949214 9.52241414,16.5677925 C9.28760508,16.6968494 9.07879158,16.866698 8.90620525,17.0690162 C8.70374305,17.2701519 8.70020664,17.5920072 8.89820253,17.7973568 Z M21.5024754,18.6431718 C21.9403765,18.5245623 22.3398927,18.2980665 22.6628687,17.9853157 C22.9829772,17.6642193 22.9829772,17.3039648 22.6628687,16.9750367 C22.5833839,16.8895529 22.4917483,16.8157016 22.3907765,16.7557513 C22.0466598,16.5834557 21.6865377,16.4189917 21.3344184,16.246696 C21.2143777,16.1840431 21.1423533,16.2310328 21.0703289,16.3406755 C20.6942013,16.9202154 20.3100711,17.4919236 19.9259409,18.0636319 C19.6858595,18.4238864 19.4457781,18.7919726 19.197694,19.1678904 C19.2614528,19.1759215 19.3260004,19.1759215 19.3897591,19.1678904 C20.0939979,18.9955947 20.8062393,18.8389623 21.5024754,18.6431718 Z M21.5104781,8 L16.0286197,16.7322565 L10.474737,8 L21.5104781,8 Z"/><filter id="vibe-d" width="117.5%" height="121.9%" x="-8.8%" y="-7.8%" filterUnits="objectBoundingBox"><feOffset dy=".5" in="SourceAlpha" result="shadowOffsetOuter1"/><feGaussianBlur in="shadowOffsetOuter1" result="shadowBlurOuter1" stdDeviation=".5"/><feColorMatrix in="shadowBlurOuter1" values="0 0 0 0 0 0 0 0 0 0 0 0 0 0 0 0 0 0 0.204257246 0"/></filter></defs><g fill="none" fill-rule="evenodd"><g fill-rule="nonzero"><use fill="#000" filter="url(#vibe-a)" xlink:href="#vibe-b"/><use fill="#338BE5" fill-rule="evenodd" xlink:href="#vibe-b"/><use fill="url(#vibe-c)" fill-rule="evenodd" style="mix-blend-mode:soft-light" xlink:href="#vibe-b"/><circle cx="16" cy="15" r="14.5" stroke="#000" stroke-opacity=".097"/></g><g fill-rule="nonzero"><use fill="#000" filter="url(#vibe-d)" xlink:href="#vibe-e"/><use fill="#FFF" fill-rule="evenodd" xlink:href="#vibe-e"/></g></g></svg>

<svg xmlns="http://www.w3.org/2000/svg" xmlns:xlink="http://www.w3.org/1999/xlink" width="32" height="32" viewBox="0 0 32 32"><defs><filter id="a" width="111.7%" height="111.7%" x="-5.8%" y="-4.2%" filterUnits="objectBoundingBox"><feOffset dy=".5" in="SourceAlpha" result="shadowOffsetOuter1"/><feGaussianBlur in="shadowOffsetOuter1" result="shadowBlurOuter1" stdDeviation=".5"/><feComposite in="shadowBlurOuter1" in2="SourceAlpha" operator="out" result="shadowBlurOuter1"/><feColorMatrix in="shadowBlurOuter1" values="0 0 0 0 0 0 0 0 0 0 0 0 0 0 0 0 0 0 0.199473505 0"/></filter><filter id="d" width="117.5%" height="121.9%" x="-8.8%" y="-7.8%" filterUnits="objectBoundingBox"><feOffset dy=".5" in="SourceAlpha" result="shadowOffsetOuter1"/><feGaussianBlur in="shadowOffsetOuter1" result="shadowBlurOuter1" stdDeviation=".5"/><feColorMatrix in="shadowBlurOuter1" values="0 0 0 0 0 0 0 0 0 0 0 0 0 0 0 0 0 0 0.204257246 0"/></filter><linearGradient id="c" x1="50%" x2="50%" y1="0%" y2="100%"><stop offset="0%" stop-color="#FFF" stop-opacity=".5"/><stop offset="100%" stop-opacity=".5"/></linearGradient><circle id="b" cx="16" cy="15" r="15"/><path id="e" d="M22.63 15.918c.73.196 1.45.423 2.098.822.288.177.557.385.8.619.36.4.336.822.008 1.245-.288.368-.68.603-1.097.799-1.056.509-2.176.799-3.32.971-.929.14-1.873.22-2.81.337a.342.342 0 00-.216.149c-.656.978-1.304 1.957-1.96 2.936a1.79 1.79 0 00-.144.204 272.253 272.253 0 01-2.057-3.133.33.33 0 00-.28-.164c-1.873-.133-3.721-.376-5.49-1.01-.56-.196-1.096-.439-1.56-.807-.025-.024-.057-.04-.08-.063-.68-.571-.697-1.182-.04-1.77.52-.47 1.16-.736 1.824-.94.664-.203 1.336-.352 2.009-.524.032-.008.064-.008.12-.024-1.449-2.216-2.881-4.409-4.346-6.633.088-.008.152-.016.208-.016.905-.008 1.809 0 2.713-.008a.327.327 0 01.312.18c2.19 3.34 4.378 6.681 6.563 10.025a.98.98 0 00.112.157c.504-.76.992-1.488 1.472-2.217 1.76-2.66 3.521-5.317 5.282-7.972.064-.094.112-.165.256-.165.952.008 1.905.008 2.857.008.045 0 .09.002.136.008a3255.396 3255.396 0 01-4.466 6.72c.377.093.737.172 1.097.266zm-13.732 1.88c.186.207.405.385.648.524 1 .533 2.105.728 3.25.9-.016-.054-.016-.078-.024-.093-.649-.98-1.289-1.966-1.937-2.945a.231.231 0 00-.2-.063c-.38.125-.752.274-1.113.447a2.227 2.227 0 00-.616.501.517.517 0 00-.008.728zm12.604.845a2.672 2.672 0 001.16-.658c.321-.32.321-.681 0-1.01a1.226 1.226 0 00-.271-.22c-.344-.172-.704-.336-1.057-.508-.12-.063-.192-.016-.264.094-.376.58-.76 1.15-1.144 1.723-.24.36-.48.728-.728 1.104a.769.769 0 00.192 0c.704-.172 1.416-.329 2.112-.525zM21.51 8l-5.481 8.732L10.475 8H21.51z"/></defs><g fill="none"><use fill="#000" filter="url(#a)" xlink:href="#b"/><use fill="#338BE5" fill-rule="evenodd" xlink:href="#b"/><use fill="url(#c)" fill-rule="evenodd" style="mix-blend-mode:soft-light" xlink:href="#b"/><circle cx="16" cy="15" r="14.5" stroke="#000" stroke-opacity=".097"/><use fill="#000" filter="url(#d)" xlink:href="#e"/><use fill="#FFF" fill-rule="evenodd" xlink:href="#e"/></g></svg>
